X: 10
T: Salva nos domine / Save us Lord
N: Derived from Mou2093-Salva_nos_domine.krn
C: Mouton
%%abc-version 2.0
%%abcx-abcm2ps-target-version 5.9.1 (29 Sep 2008)
%%abc-creator hum2abc beta
%%abcx-conversion-date 2019/02/17 07:22:04
%%abc-edited-by Jesse Rodin
%%abc-edited-by Victoria Chang
%%abcx-initial-encoding-date 2011/03/23/
%%humdrum-veritas 1739425368
%%humdrum-veritas-data 3483134846
%%linebreak <none>
%%barnumbers 0
L: 1/4
M: 2/1
Q: 1/2=120
V: 1 clef=treble
V: 2 clef=treble
V: 3 clef=treble-8
V: 4 clef=treble-8
V: 5 clef=bass
V: 6 clef=bass
K: C
[V:1] z8 | 
[V:2] z8 | 
[V:3] z8 | 
[V:4] z8 | 
[V:5] D,4E,2G,2- | 
[V:6] G,,8 | 
[V:1] z8 | 
[V:2] z8 | 
[V:3] z8 | 
[V:4] z8 | 
[V:5] G,2F,2G,3F, | 
[V:6] A,,4C,4 | 
[V:1] z8 | 
[V:2] z8 | 
[V:3] z8 | 
[V:4] G8 | 
[V:5] E,2D,C,D,2E,2 | 
[V:6] C,4B,,2C,2- | 
[V:1] z8 | 
[V:2] z8 | 
[V:3] z8 | 
[V:4] A4c4 | 
[V:5] E,2F,2G,2A,2 | 
[V:6] C,2D,2E,2F,2 | 
[V:1] G8 | 
[V:2] z8 | 
[V:3] z8 | 
[V:4] c6B2 | 
[V:5] G,2E,3F,G,2 | 
[V:6] E,2C,3D,E,2 | 
[V:1] A4c4- | 
[V:2] z8 | 
[V:3] c8 | 
[V:4] c2d2e2f2 | 
[V:5] F,2E,2A,4 | 
[V:6] A,,8 | 
[V:1] c2BAB4 | 
[V:2] G8 | 
[V:3] d8 | 
[V:4] g8 | 
[V:5] G,4z4 | 
[V:6] z8 | 
[V:1] c4A4- | 
[V:2] A8 | 
[V:3] f8 | 
[V:4] c6A2 | 
[V:5] z4C4- | 
[V:6] F,6F,2 | 
[V:1] A2GFA4 | 
[V:2] c8 | 
[V:3] f8 | 
[V:4] A4F4 | 
[V:5] C2A,2A,3G,/F,/ | 
[V:6] F,4F,4 | 
[V:1] G4E4 | 
[V:2] c8 | 
[V:3] z4g4- | 
[V:4] G4G4 | 
[V:5] E,4C,4 | 
[V:6] C,3D,E,4 | 
[V:1] z4A4- | 
[V:2] z4d4- | 
[V:3] g2f2f4 | 
[V:4] A8 | 
[V:5] F,6G,2 | 
[V:6] D,8 | 
[V:1] A4A4 | 
[V:2] d2c2c4 | 
[V:3] e8 | 
[V:4] z4e4 | 
[V:5] A,8 | 
[V:6] A,,4z4 | 
[V:1] B4G4- | 
[V:2] B8 | 
[V:3] z4d4 | 
[V:4] d4B4 | 
[V:5] z2G,2G,4 | 
[V:6] G,,8 | 
[V:1] G4c4- | 
[V:2] z4A4 | 
[V:3] e6c2 | 
[V:4] c3de4 | 
[V:5] E,4C,4 | 
[V:6] C,4A,,4 | 
[V:1] c2BAB3A/B/ | 
[V:2] B6G2 | 
[V:3] d8 | 
[V:4] z2g2g4 | 
[V:5] G,8 | 
[V:6] G,,8 | 
[V:1] c2C2E2F2 | 
[V:2] A8 | 
[V:3] c8 | 
[V:4] e4c3d | 
[V:5] z4A,4 | 
[V:6] z8 | 
[V:1] G4z2D2 | 
[V:2] G8 | 
[V:3] z8 | 
[V:4] e2d2g4 | 
[V:5] B,4B,4 | 
[V:6] z8 | 
[V:1] E3FG4 | 
[V:2] z8 | 
[V:3] z8 | 
[V:4] g4G4 | 
[V:5] C8 | 
[V:6] C,4E,3F, | 
[V:1] G2D2F3G | 
[V:2] z8 | 
[V:3] z8 | 
[V:4] B3cd4 | 
[V:5] z8 | 
[V:6] G,4F,2D,2 | 
[V:1] A4G2A2 | 
[V:2] z8 | 
[V:3] c4e2f2 | 
[V:4] c2A2c4 | 
[V:5] z4C,4 | 
[V:6] F,4E,2A,2 | 
[V:1] B4G4 | 
[V:2] G4B2c2 | 
[V:3] g8 | 
[V:4] B4z2G2 | 
[V:5] E,3F,G,4 | 
[V:6] G,2G,2G,2F,E, | 
[V:1] z4A4- | 
[V:2] d8 | 
[V:3] f2d2f4 | 
[V:4] A6B2 | 
[V:5] z2F,4D,2 | 
[V:6] D,8 | 
[V:1] A2A2A4 | 
[V:2] c2A2c4 | 
[V:3] e8 | 
[V:4] c4A2A2 | 
[V:5] A,4E,4 | 
[V:6] z4A,,4 | 
[V:1] G4z2G2 | 
[V:2] B8 | 
[V:3] z4e4 | 
[V:4] B4G4 | 
[V:5] z2G,2G,2E,2 | 
[V:6] E,6E,2 | 
[V:1] F2F2G4 | 
[V:2] z4B4 | 
[V:3] c4e4 | 
[V:4] z8 | 
[V:5] A,4G,4- | 
[V:6] F,4E,4- | 
[V:1] E6E2 | 
[V:2] G4B4 | 
[V:3] g8 | 
[V:4] z4G4 | 
[V:5] G,4z4 | 
[V:6] E,2E,2E,4 | 
[V:1] F4D4 | 
[V:2] d8 | 
[V:3] f2d2f4 | 
[V:4] A6B2 | 
[V:5] z2F,4E,D, | 
[V:6] D,8 | 
[V:1] z2E2E2E2 | 
[V:2] c2A2c4 | 
[V:3] e4z4 | 
[V:4] c4A2A2 | 
[V:5] A,8 | 
[V:6] z8 | 
[V:1] G3AB2B2 | 
[V:2] B4z4 | 
[V:3] d4d2d2 | 
[V:4] B4G4 | 
[V:5] G,4z2G,2 | 
[V:6] G,,4G,,2G,,2 | 
[V:1] c4A4 | 
[V:2] A4A2A2 | 
[V:3] c6BA | 
[V:4] z8 | 
[V:5] E,2E,2F,4 | 
[V:6] A,,4F,,4 | 
[V:1] z4G4 | 
[V:2] G6FE | 
[V:3] B4c4 | 
[V:4] d4e2e2 | 
[V:5] D,4C,4 | 
[V:6] G,,4z4 | 
[V:1] A4G3A | 
[V:2] F4G4 | 
[V:3] z4c4 | 
[V:4] c4c4 | 
[V:5] C,2D,2E,4- | 
[V:6] F,,4C,4 | 
[V:1] B4z4 | 
[V:2] z4G4 | 
[V:3] d8 | 
[V:4] B8 | 
[V:5] E,2D,C,D,4 | 
[V:6] G,,3A,,B,,4 | 
[V:1] c8 | 
[V:2] A8 | 
[V:3] c4A4 | 
[V:4] z4c3d | 
[V:5] E,4F,4 | 
[V:6] A,,4F,,4 | 
[V:1] B4G4 | 
[V:2] G4E4 | 
[V:3] B8 | 
[V:4] edg3fe2- | 
[V:5] z2D,2G,3G, | 
[V:6] G,,4z4 | 
[V:1] A6B2 | 
[V:2] F8 | 
[V:3] A8- | 
[V:4] e2dcd4 | 
[V:5] F,2E,2D,4 | 
[V:6] D,4D,4 | 
[V:1] c4A2c2- | 
[V:2] E8- | 
[V:3] A8 | 
[V:4] e8- | 
[V:5] A,4A,4 | 
[V:6] A,,4A,,4 | 
[V:1] cBAGA4 | 
[V:2] E8- | 
[V:3] c8 | 
[V:4] e8- | 
[V:5] E,8- | 
[V:6] A,,8 | 
[V:1] G8 |]  
[V:2] E8 |]  
[V:3] B8 |]  
[V:4] e8 |]  
[V:5] E,8 |]  
[V:6] E,,8 |]  



